X:1
T:Title
%%score { ( 1 3 ) | ( 2 4 ) }
L:1/8
Q:1/4=100
M:6/8
K:Eb
V:1 treble nm="Grand Piano"
V:3 treble 
V:2 bass 
V:4 bass 
V:1
 [EG][FA][_G=A] [=GB][Ac]G | B3 A3 | D[CE][_D=E] [=DF][DB][DA] | [EG]6 | %4
w: John~R.~Sweney * * * * *||||
 [EG][FA][_G=A] [=GB][Ge][GB] | [Bd]3 c3 | BFG =Adc | [DB]6 | Bdc Bdc | [GB]3 [Ge]3 | %10
w: ||||||
 [Ge][Fd][Ec] =Bcd | [Ec]6 | [Dc][DF][EG] [DA][Ad][DAc] | [EGB]3 [Ge]3 | %14
w: ||||
 [Fd][DF][DG] [DB][DA][A,DF] | [G,E]6 |[M:9/8] [B,GB][B,EG][Ge] [Ad]3 [DA]3 | %17
w: |||
 [FA][Ad][DAc] [Ac]3 [GB]3 | [GB][Ge][Bd] [Ac][GB]G GFE | [B,DF]6 GA=A | %20
w: |||
 [GB]-[EG-B-][EG-B-] [GB]2 B [GB]=AB | [Ac]-[EA-c-][EA-c-] [EAc]3 e3 | %22
w: ||
 [Ad]3- [Ad][DF][EG] [DB][DA][DF] |[M:3/4] E6 |] %24
w: ||
V:2
 [E,B,][E,B,][E,C] [E,B,][E,E][E,B,E] | [F,B,D]3 [F,B,D]3 | %2
 [B,,F,B,][B,,F,][B,,B,] [B,,B,][B,,B,][B,,B,] | [E,B,]6 | [E,B,][E,B,][E,C] [E,B,][E,B,][E,E] | %5
 [A,E]3 [A,EA]3 | [F,B,D][F,B,D][F,B,D] [F,CE][F,=A,E][F,A,E] | [B,,B,]6 | %8
 [B,DA][B,FA][B,EA] [B,DA][B,FA][B,DA] | [E,E]3 [E,B,]3 | %10
 [C,C][C,C][C,G,][K:treble] [G,D][G,E][G,F] | [C,G,]6 | [B,,A,][B,,A,][B,,G,] [B,,F,][B,,B,]B,, | %13
 E,3 [E,B,]3 | [B,,B,][B,,B,][B,,B,] [B,,F,][B,,F,]B,, | E,6 |[M:9/8] E,E,[E,B,] [F,B,]3 [F,B,]3 | %17
 [B,,B,][B,,B,]B,, [E,E]3 [E,E]3 | [E,B,][E,B,][E,E] [E,E][E,E][E,B,E] [E,B,E][D,A,C][E,G,] | %19
 B,,6[K:treble] EF_G | E,E,E, z2 G z[K:treble] _G=G | A,A,A, A,3 [A,CA]3 | %22
 B,B,B, B,B,B, [B,,F,][B,,F,][B,,A,] |[M:3/4] [E,G,]6 |] %24
V:3
 x6 | x6 | x6 | x6 | x6 | x6 | x6 | x6 | x6 | x6 | x6 | x6 | x6 | x6 | x6 | x6 |[M:9/8] x9 | x9 | %18
 x9 | x9 | .E3 E3 z3 | .E3 z3 z3 | x9 |[M:3/4] x6 |] %24
V:4
 x6 | x6 | x6 | x6 | x6 | x6 | x6 | x6 | x6 | x6 | x3[K:treble] x3 | x6 | x6 | x6 | x6 | x6 | %16
[M:9/8] x9 | x9 | x9 | x6[K:treble] x3 | z3 E,3 [E,E]3[K:treble] | x9 | x9 |[M:3/4] x6 |] %24

